src/img/modal/icon-2.svg

<svg width='15' height='15' viewBox='0 0 15 15' fill='none' xmlns='http://www.w3.org/2000/svg'><path d='M14.5835 10.9849V13.1099C14.5843 13.3072 14.5439 13.5024 14.4649 13.6832C14.3858 13.8639 14.2699 14.0262 14.1246 14.1596C13.9792 14.2929 13.8076 14.3945 13.6207 14.4577C13.4338 14.5209 13.2358 14.5443 13.0393 14.5266C10.8597 14.2897 8.76597 13.5449 6.92643 12.352C5.21497 11.2645 3.76396 9.81344 2.67643 8.10199C1.47933 6.25409 0.734349 4.15019 0.501843 1.96074C0.484142 1.76486 0.507421 1.56744 0.570198 1.38106C0.632974 1.19467 0.733872 1.02339 0.866469 0.878138C0.999066 0.732881 1.16045 0.616825 1.34036 0.537359C1.52027 0.457893 1.71475 0.416758 1.91143 0.416573H4.03643C4.38018 0.413189 4.71345 0.53492 4.97409 0.759075C5.23474 0.98323 5.40498 1.29451 5.45309 1.63491C5.54278 2.31495 5.70912 2.98267 5.94893 3.62532C6.04423 3.87885 6.06485 4.15439 6.00836 4.41928C5.95187 4.68417 5.82062 4.92732 5.63018 5.11991L4.73059 6.01949C5.73894 7.79283 7.20725 9.26114 8.98059 10.2695L9.88018 9.36991C10.0728 9.17946 10.3159 9.04822 10.5808 8.99172C10.8457 8.93523 11.1212 8.95585 11.3748 9.05116C12.0174 9.29096 12.6851 9.4573 13.3652 9.54699C13.7093 9.59553 14.0235 9.76884 14.2481 10.034C14.4728 10.2991 14.5921 10.6375 14.5835 10.9849Z' fill='#B2B2B2'/></svg>

<svg width="15" height="15" fill="none" xmlns="http://www.w3.org/2000/svg"><path d="M14.584 10.985v2.125a1.417 1.417 0 01-1.545 1.417 14.02 14.02 0 01-6.113-2.175 13.812 13.812 0 01-4.25-4.25A14.018 14.018 0 01.502 1.961 1.417 1.417 0 011.912.417h2.124a1.417 1.417 0 011.417 1.218c.09.68.256 1.348.496 1.99A1.417 1.417 0 015.63 5.12l-.9.9a11.333 11.333 0 004.25 4.25l.9-.9a1.417 1.417 0 011.495-.319 9.09 9.09 0 001.99.496 1.416 1.416 0 011.219 1.438z" fill="#B2B2B2"/></svg>
